X:118
T:118 The Haland Ladde (Kate Dalrymple)
C:Shoosmith MS
I:abc2nwc
M:C|
L:1/8
K:G
D2|G2GB A2AB|G2GB A2B2|G2g2edcB|ABcA B2G2|
G2GB A2AB|G2GB A2B2|G2g2edcB|ABcA B2G2|]
d2de dgfe|d2de dcBc|d2de dgfe|d2d2d2B2|
c2ce B2Bd|A2Ac B2A2|G2g2edcB|ABcA B2G2:|

